X:9
T:Blackbird, The
R:hornpipe
D:De Dannan 1
Z:id:hn-hornpipe-9
M:C|
K:Dmix
DE|F2FA GFD2|de (3fed dcAF|G2GF GFDE|FGAF GBAG|
F2FA GFD2|de (3fed dcAG|AdcA GcAG|F2D2 D2:|
|:de|f2 (3def gfe^c|d^cde fdA2|f2 (3def gfed|fagf g2 (3efg|
afge fde^c|d2de fdAG|AdcA GcAG|F2D2 D2:|
P:variations & different version of 2nd part
|:AG|FEFA GFD2|defd d^cAF|GFGA GFDE|FG (3AGF GBAG|
FEFA GFD2|defd d^cAG|AdcA GBAG|F2D2 D2:|
|:fg|agfa gfeg|fde^c d^cA2|agfa gfde|(3fed gf e2fg|
(3agf ge f2fe|d^cde fde^c|d^cAF GBAG|F2D2 D2:|
<end>
<start>
